!!!OTL: "Der todte Gast" ES POCHET EIN KNABE
!!!ARE: Europa, Mitteleuropa, Deutschland, Nord - Deutschland
!!!SCT: Z1060
!!!YEM: Copyright 1995, estate of Helmut Schaffrath.
**kern
*ICvox
*Ivox
*M4/4
*k[b-e-]
*g:
{4g
=1
4g
8dd
8dd
4dd
8cc
8ee-
=2
4dd
4b-
4a}
{8b-
8a
=3
4g
8f#
8g
4cc
8cc
8b-
=4
2a
4r}
{4b-
=5
4a
8a
8a
4a
8f#
8d
=6
4g
4b-
4a}
{4dd
=7
4cc
8b-
8b-
4a
4b-
=8
2g
4r}
==
!!!AGN: Romanze, Ballade, Tod
!!!ONB: ESAC (Essen Associative Code) Database: ZUCCAL
!!!AMT: simple quadruple
!!!AIN: vox
!!!EED: Helmut Schaffrath
!!!EEV: 1.0
*-
